X:1
T: The Hen and all her Broth
C:
R:Jig
Q:180
K:G
M:6/8
L:1/16
|:G4E2 D4E2|G4A2 B4e2|d4B,2 A4G2|E4A2 A4B2|
G4E2 D4E2|G4A2 B4e2|d4B2 A4B2|G6G6:|
|:g4f2 e4d2|e4d2 B4e2|d4B2 A4G2|E4A2 A4f2|
|1g4f2 e4d2|e4d2 B4e2|d4B2 A4B2|G6G6:|
|2g4e2 f4d2|e4d2 B4e2|d4B2 A4B2|G6G6||
